X:7
T:midi test2
V:T1           clef=treble-8  name="Tenore I"   snm="T.I"
V:T2           clef=treble-8  name="Tenore II"  snm="T.II"M:4/4
Q:1/2=158"
L:1/4
K:G                        

[V:T1] |:: b b aa c c ::| 
w:vien-to tan bue--no co--mo quer--ri-a.
C:Trad.               % traditional
R:DH                  % double hornpipe
[V:T2]||  a b c  |1  e f g  ::|2  gf ed   ::|] | 
V:3
%%MIDI channel 2
x2x2x4|x2GA BGx2|B/E/F/^G/A/B/c/A/x4|x2A2d4|
d2d2G2A2-|A2^G2x8|:x2x2B4|x2x2x2x2|
x4x4|x2A2[d4A4]|d2d4dc|BAB2x8:|


